src/assets/svg/dribbble.svg

<?xml version="1.0" encoding="utf-8"?>
<!-- Generator: Adobe Illustrator 15.0.2, SVG Export Plug-In . SVG Version: 6.00 Build 0)  -->
<!DOCTYPE svg PUBLIC "-//W3C//DTD SVG 1.1//EN" "http://www.w3.org/Graphics/SVG/1.1/DTD/svg11.dtd">
<svg version="1.1" id="Layer_1" xmlns="http://www.w3.org/2000/svg" xmlns:xlink="http://www.w3.org/1999/xlink" x="0px" y="0px"
	 width="50px" height="50px" viewBox="0 0 50 50" enable-background="new 0 0 50 50" xml:space="preserve">
<g>
	<path d="M92.906-37.185c0,0.464,0,0.869,0,1.331c0,13.543-10.299,29.168-29.166,29.168c-5.787,0-11.227-1.274-15.74-4.168
		c0.811,0.114,1.619,0.171,2.43,0.171c4.805,0,9.26-2.079,12.732-4.857c-4.456-0.059-8.275-3.066-9.55-7.118
		c0.638,0.116,1.274,0.173,1.911,0.173c0.926,0,1.852-0.116,2.719-0.346c-4.687-0.926-8.217-5.094-8.217-10.071
		c0-0.057,0-0.057,0-0.114c1.389,0.751,2.952,1.215,4.629,1.272c-2.777-1.852-4.57-4.976-4.57-8.506
		c0-1.911,0.521-3.472,1.388-4.978c5.094,6.192,12.617,10.069,21.124,10.533c-0.174-0.753-0.232-1.563-0.232-2.373
		c0-5.671,4.572-10.244,10.244-10.244c2.951,0,5.612,1.274,7.523,3.242c2.313-0.462,4.514-1.331,6.479-2.489
		c-0.75,2.373-2.37,4.398-4.513,5.672c2.083-0.232,4.052-0.81,5.903-1.62C96.609-40.425,94.874-38.632,92.906-37.185z"/>
</g>
<g>
	<path d="M50,24.999C50,38.833,38.832,50,24.999,50C11.168,50,0,38.833,0,24.999C0,11.168,11.168,0,24.999,0
		C38.832,0,50,11.168,50,24.999z M9.491,38.89c4.397-6.715,9.953-11.286,16.55-13.602c0.405-0.173,0.811-0.289,1.215-0.404
		c-0.462-1.1-0.982-2.258-1.504-3.355c-5.903,1.735-12.962,2.718-21.586,2.834c0,0.232,0,0.404,0,0.637
		C4.166,30.322,6.192,35.187,9.491,38.89z M4.63,20.543c7.696-0.173,14.061-0.983,19.328-2.487
		c-2.141-3.878-4.803-7.871-8.044-11.807C10.242,8.97,6.018,14.236,4.63,20.543z M32.812,44.327
		c-0.753-4.688-2.024-10.069-4.108-15.856c-5.904,1.677-11.632,5.616-16.377,13.08c3.472,2.662,7.871,4.282,12.673,4.282
		C27.777,45.833,30.438,45.312,32.812,44.327z M20.197,4.745c3.183,3.936,5.729,7.985,7.87,11.921
		c4.396-1.794,7.869-4.224,10.587-7.407c-3.642-3.182-8.446-5.094-13.654-5.094C23.32,4.165,21.76,4.341,20.197,4.745z
		 M29.802,20.022c0.579,1.33,1.157,2.604,1.679,3.878c4.512-0.696,9.314-0.464,14.352,0.694c-0.113-4.746-1.794-9.086-4.517-12.559
		C38.312,15.451,34.49,18.113,29.802,20.022z M45.539,28.414c-3.874-0.928-8.213-1.393-12.611-0.871
		c1.908,5.267,3.064,10.248,3.878,14.644C41.377,39.004,44.615,34.145,45.539,28.414z"/>
</g>
<g>
	<path d="M123.667-2.708h-4.111c0.635,1.445,0.984,3.126,0.984,4.978c0,6.887-4.916,11.458-10.997,11.69
		c-1.791,2.837-1.327,4.514,1.274,6.252c7.176,0.289,12.85,4.452,12.85,9.895c0,5.787-6.082,9.895-13.546,9.895
		c-7.465,0-13.538-4.164-13.538-9.895c0-3.704,2.545-6.769,6.424-8.45c-3.647-3.586-2.377-7.176,0.17-9.26
		c-3.354-1.908-5.551-5.494-5.551-10.126c0-7.062,5.145-11.749,11.453-11.749c2.32,0,4.461,0.637,6.252,1.736
		c6.194-0.405,8.336-2.257,8.336-2.257V-2.708z M103.873,30.105c0,2.026,2.431,3.646,6.248,3.646c3.821,0,6.251-1.62,6.251-3.646
		c0-2.023-2.43-3.644-6.251-3.644C106.304,26.462,103.873,28.082,103.873,30.105z M113.247,1.98c0-3.647-1.848-5.731-4.168-5.731
		c-2.312,0-4.164,2.084-4.164,5.731c0,3.643,1.852,5.727,4.164,5.727C111.399,7.707,113.247,5.623,113.247,1.98z"/>
</g>
<g>
	<path d="M118.75,54.623h-15.22c-2.489-2.544-5.96-4.164-9.78-4.164s-7.291,1.62-9.78,4.164H68.75v-8.332
		c0-3.992,3.299-7.289,7.291-7.289h35.418c3.992,0,7.291,3.297,7.291,7.289V54.623z M118.75,58.79v22.919
		c0,3.992-3.299,7.289-7.291,7.289H76.041c-3.992,0-7.291-3.297-7.291-7.289V58.79h12.501c-0.696,1.62-1.042,3.358-1.042,5.21
		c0,7.465,6.076,13.541,13.541,13.541S107.291,71.465,107.291,64c0-1.852-0.346-3.59-1.042-5.21H118.75z M84.375,64
		c0-5.152,4.168-9.377,9.375-9.377c5.15,0,9.375,4.225,9.375,9.377c0,5.21-4.225,9.377-9.375,9.377
		C88.543,73.377,84.375,69.21,84.375,64z"/>
</g>
<g>
	<path d="M92.499,2.876L67.5-15.874c0-1.734,1.391-3.126,3.126-3.126h43.749c1.733,0,3.125,1.392,3.125,3.126L92.499,2.876z
		 M92.499,8.488l25.001-18.75v25.636c0,1.733-1.392,3.126-3.125,3.126H70.626c-1.735,0-3.126-1.393-3.126-3.126v-25.636
		L92.499,8.488z"/>
</g>
<g>
	<path d="M-26.495,9.574c-0.999-0.497-1.632-1.562-1.709-2.697c0-0.142-0.633-10.796-0.633-21.876
		c0-11.081,0.633-21.734,0.633-21.876c0.078-1.135,0.71-2.131,1.709-2.698c0.994-0.569,2.198-0.569,3.197,0
		C-8.246-31.123,4.686-17.841,5.18-17.272c1.21,1.279,1.21,3.266,0,4.546C4.686-12.158-8.246,1.124-23.298,9.574
		C-24.297,10.143-25.501,10.143-26.495,9.574z"/>
</g>
<g>
	<path d="M61.072,26.744c-0.176-0.087-0.287-0.274-0.301-0.475c0-0.024-0.111-1.899-0.111-3.849s0.111-3.824,0.111-3.849
		c0.014-0.2,0.125-0.375,0.301-0.475c0.175-0.1,0.387-0.1,0.562,0c2.648,1.487,4.924,3.824,5.011,3.924
		c0.213,0.225,0.213,0.575,0,0.8c-0.087,0.1-2.362,2.437-5.011,3.923C61.459,26.845,61.247,26.845,61.072,26.744z"/>
</g>
<text transform="matrix(1 0 0 1 20.9604 -5.3306)" font-family="'SSPika'" font-size="12">directright</text>
</svg>

<?xml version="1.0" encoding="UTF-8"?>
<svg width="50px" height="50px" viewBox="0 0 50 50" version="1.1" xmlns="http://www.w3.org/2000/svg" xmlns:xlink="http://www.w3.org/1999/xlink">
    <!-- Generator: Sketch 40.1 (33804) - http://www.bohemiancoding.com/sketch -->
    <title>dribbble</title>
    <desc>Created with Sketch.</desc>
    <defs></defs>
    <g id="Welcome" stroke="none" stroke-width="1" fill="none" fill-rule="evenodd">
        <path d="M50,24.999 C50,38.833 38.833,50 24.999,50 C11.168,50 0,38.833 0,24.999 C0,11.168 11.168,0 24.999,0 C38.832,-7.10542736e-15 50,11.168 50,24.999 L50,24.999 Z M9.491,38.889 C13.888,32.174 19.444,27.603 26.041,25.287 C26.446,25.114 26.851,24.998 27.256,24.883 C26.794,23.783 26.273,22.625 25.752,21.528 C19.849,23.263 12.79,24.246 4.166,24.362 L4.166,24.999 C4.165,30.322 6.192,35.186 9.491,38.889 L9.491,38.889 Z M4.63,20.543 C12.326,20.37 18.691,19.56 23.958,18.056 C21.817,14.178 19.155,10.185 15.914,6.249 C10.242,8.97 6.017,14.236 4.63,20.543 L4.63,20.543 Z M32.811,44.327 C32.058,39.639 30.786,34.258 28.702,28.471 C22.799,30.148 17.071,34.087 12.325,41.551 C15.797,44.213 20.196,45.833 24.998,45.833 C27.777,45.833 30.438,45.311 32.811,44.327 L32.811,44.327 Z M20.196,4.745 C23.379,8.681 25.925,12.73 28.065,16.666 C32.462,14.872 35.934,12.442 38.652,9.259 C35.01,6.077 30.205,4.165 24.998,4.165 C23.32,4.165 21.759,4.341 20.196,4.745 L20.196,4.745 Z M29.801,20.022 C30.381,21.352 30.959,22.626 31.48,23.9 C35.991,23.204 40.794,23.436 45.832,24.594 C45.718,19.848 44.038,15.508 41.315,12.035 C38.311,15.451 34.49,18.113 29.801,20.022 L29.801,20.022 Z M45.539,28.414 C41.664,27.486 37.326,27.021 32.927,27.543 C34.836,32.81 35.991,37.791 36.805,42.187 C41.376,39.004 44.615,34.144 45.539,28.414 L45.539,28.414 Z" id="dribbble" fill="#282829"></path>
    </g>
</svg>
